icons/svg/sport/model_aerodrome.svg

<?xml version="1.0" encoding="UTF-8" standalone="no"?>
<!-- Created with Inkscape (http://www.inkscape.org/) -->

<svg
   xmlns:dc="http://purl.org/dc/elements/1.1/"
   xmlns:cc="http://creativecommons.org/ns#"
   xmlns:rdf="http://www.w3.org/1999/02/22-rdf-syntax-ns#"
   xmlns:svg="http://www.w3.org/2000/svg"
   xmlns="http://www.w3.org/2000/svg"
   xmlns:sodipodi="http://sodipodi.sourceforge.net/DTD/sodipodi-0.dtd"
   xmlns:inkscape="http://www.inkscape.org/namespaces/inkscape"
   version="1.0"
   width="580"
   height="580"
   id="svg2"
   sodipodi:version="0.32"
   inkscape:version="0.91 r"
   sodipodi:docname="model_aerodrome.svg"
   inkscape:output_extension="org.inkscape.output.svg.inkscape">
  <metadata
     id="metadata2975">
    <rdf:RDF>
      <cc:Work
         rdf:about="">
        <dc:format>image/svg+xml</dc:format>
        <dc:type
           rdf:resource="http://purl.org/dc/dcmitype/StillImage" />
        <cc:license
           rdf:resource="http://web.resource.org/cc/PublicDomain" />
        <dc:language>en</dc:language>
        <dc:title></dc:title>
      </cc:Work>
    </rdf:RDF>
  </metadata>
  <sodipodi:namedview
     inkscape:window-height="1004"
     inkscape:window-width="1920"
     inkscape:pageshadow="2"
     inkscape:pageopacity="0.0"
     guidetolerance="10.0"
     gridtolerance="10.0"
     objecttolerance="10.0"
     borderopacity="1.0"
     bordercolor="#666666"
     pagecolor="#ffffff"
     id="base"
     inkscape:zoom="0.11520964"
     inkscape:cx="954.40363"
     inkscape:cy="900.51409"
     inkscape:window-x="1680"
     inkscape:window-y="0"
     inkscape:current-layer="svg2"
     showgrid="false"
     inkscape:window-maximized="1" />
  <defs
     id="defs4">
    <inkscape:perspective
       sodipodi:type="inkscape:persp3d"
       inkscape:vp_x="0 : 290 : 1"
       inkscape:vp_y="0 : 1000 : 0"
       inkscape:vp_z="580 : 290 : 1"
       inkscape:persp3d-origin="290 : 193.33333 : 1"
       id="perspective10" />
  </defs>
  <g
     id="g1327">
    <path
       d="M 66.275,1.768 C 24.94,1.768 1.704,23.139 1.704,66.804 l 0,450.123 c 0,40.844 20.895,62.229 62.192,62.229 l 452.024,0 c 41.307,0 62.229,-20.315 62.229,-62.229 l 0,-450.123 c 0,-42.601 -20.922,-65.036 -63.521,-65.036 -0.004,0 -448.495,-0.143 -448.353,0 z"
       style="fill:#111111;stroke:#eeeeee;stroke-width:3.40799999"
       id="path1329"
       inkscape:connector-curvature="0" />
  </g>
  <g
     id="g7"
     inkscape:version="0.46"
     sodipodi:docname="waste_bin.svg"
     sodipodi:version="0.32"
     inkscape:output_extension="org.inkscape.output.svg.inkscape"
     transform="matrix(0.69841351,-0.33811721,0.33811721,0.69841351,124.94753,265.80428)">
    <path
       style="clip-rule:evenodd;fill:#ffffff;fill-rule:evenodd"
       inkscape:connector-curvature="0"
       d="m 341.445,203.829 c -47.777,-28.505 -99.5,-62.198 -148.351,-92.246 -5.789,-3.563 -16.993,-12.781 -21.849,-12.48 -10.638,0.659 -21.919,10.47 -31.606,11.574 38.269,45.426 77.462,88.854 115.736,134.273 -33.347,15.501 -68.961,32.315 -102.232,47.677 -5.135,2.369 -11.219,6.295 -14.824,6.706 -3.437,0.394 -11.275,-4.292 -15.778,-6.382 -11.705,-5.431 -19.624,-9.573 -31.049,-14.871 -5.037,-2.339 -12.178,-6.656 -16.342,-6.179 -7.55,0.869 -12.275,5.305 -20.112,8.006 7.604,8.768 13.461,18.53 20.605,28.298 5.958,8.146 17.383,19.313 20.602,28.297 1.747,4.874 0.855,11.664 1.273,17.458 1.295,18.068 2.675,35.069 4.584,52.723 6.683,-4.033 14.145,-3.036 20.317,-7.44 2.854,-2.034 6.093,-11.111 7.925,-15.062 7.692,-16.579 14.321,-33.162 22.383,-47.24 41.06,-10.406 83.152,-23.044 124.14,-33.297 -0.015,59.338 -1.896,117.804 -1.656,177.26 10.724,-3.927 21.447,-7.854 32.172,-11.78 19.012,-55.667 35.111,-110.078 53.486,-166.798 1.912,-5.901 5.303,-21.069 8.625,-23.643 2.877,-2.225 8.039,-2.457 11.494,-3.567 64.627,-20.777 118.762,-56.498 143.971,-96.245 -50.383,-14.93 -113.736,-1.911 -183.514,24.958 z"
       id="path9" />
  </g>
  <path
     style="font-style:normal;font-variant:normal;font-weight:normal;font-stretch:normal;font-size:40px;line-height:125%;font-family:NPSPICT3;-inkscape-font-specification:NPSPICT3;text-align:start;writing-mode:lr-tb;text-anchor:start;fill:#ffffff;fill-opacity:1;stroke:none;stroke-width:1px;stroke-linecap:butt;stroke-linejoin:miter;stroke-opacity:1"
     d="m 132.77139,135.49621 c 9.90939,3.7e-4 18.4689,-3.60418 25.67853,-10.81363 7.20854,-7.20871 10.81308,-15.76822 10.81364,-25.67853 -5.6e-4,-10.34936 -3.6051,-19.01538 -10.81364,-25.9981 -7.20963,-6.98187 -15.76914,-10.47302 -25.67853,-10.47345 -9.91044,4.3e-4 -18.46651,3.49158 -25.66823,10.47345 -7.202715,6.98272 -10.803815,15.64874 -10.803335,25.9981 -4.8e-4,9.91031 3.60062,18.46982 10.803335,25.67853 7.20172,7.20945 15.75779,10.814 25.66823,10.81363 z m 47.97586,7.42216 -96.611472,0 c -13.05792,3.3e-4 -24.20486,4.61856 -33.44086,13.85464 -9.23686,9.23677 -13.85507,20.61049 -13.85465,34.12122 l 0,112.13611 c -4.2e-4,10.81726 4.95453,16.22579 14.86489,16.22561 9.4559,1.8e-4 14.18408,-5.40835 14.18454,-16.22561 l 0,-109.43528 17.56572,0 0,297.25657 c -4.8e-4,13.51103 6.75504,20.26655 20.266552,20.26657 13.51053,-2e-5 20.26604,-6.75554 20.26655,-20.26657 l 0,-172.27604 17.56573,0 0,172.27604 c -5.3e-4,13.51103 6.75498,20.26655 20.26655,20.26657 13.96406,-2e-5 20.94636,-6.75554 20.94692,-20.26657 l 0,-297.25657 16.88537,0 0,109.43528 c -5.9e-4,11.25709 4.72758,16.88553 14.18453,16.88537 9.46948,1.6e-4 14.20452,-5.62828 14.20513,-16.88537 l 0,-111.47637 c -6.1e-4,-13.05715 -4.39203,-24.42744 -13.17428,-34.1109 -8.78346,-9.68279 -20.15718,-14.52437 -34.12122,-14.5247 z"
     id="flowRoot3192"
     sodipodi:nodetypes="csccssscccccsccsccccsccccsccccsccccc"
     inkscape:connector-curvature="0" />
</svg>

<svg width="580" height="580" viewBox="0 0 580 580" fill="none" xmlns="http://www.w3.org/2000/svg">
<g clip-path="url(#clip0)">
<path d="M66.2751 1.76815C24.9401 1.76815 1.7041 23.1391 1.7041 66.8041V516.927C1.7041 557.771 22.5991 579.156 63.8961 579.156H515.92C557.227 579.156 578.149 558.841 578.149 516.927V66.8041C578.149 24.2031 557.227 1.76815 514.628 1.76815C514.624 1.76815 66.1331 1.62515 66.2751 1.76815V1.76815Z" fill="#111111" stroke="#EEEEEE" stroke-width="3.408"/>
<path fill-rule="evenodd" clip-rule="evenodd" d="M432.335 292.713C389.329 288.959 341.813 282.915 297.535 278.447C292.287 277.916 281.346 275.266 278.056 277.118C270.849 281.175 266.287 291.842 259.895 295.888C301.982 314.675 344.039 331.754 386.127 350.534C368.078 372.635 348.89 396.42 330.847 418.399C328.062 421.789 325.14 426.588 322.761 428.094C320.494 429.532 313.435 428.909 309.584 428.972C299.572 429.137 292.641 428.921 282.87 429.084C278.562 429.154 272.115 428.553 269.368 430.294C264.389 433.454 262.588 438.15 258.028 442.686C266.304 446.238 273.695 451.076 281.987 455.483C288.903 459.157 300.658 463.094 305.943 468.28C308.812 471.093 310.484 476.137 312.735 480.042C319.749 492.223 326.461 503.63 333.763 515.315C337.067 510.238 342.616 508.412 345.438 503.249C346.743 500.863 345.936 493.429 345.88 490.05C345.646 475.87 344.669 462.047 345.54 449.489C370.698 428.338 395.823 405.279 420.982 384.26C441.035 425.707 459.49 467.177 479.761 508.621C485.923 502.252 492.084 495.884 498.247 489.515C492.703 444.208 485.55 400.764 479.205 354.937C478.545 350.169 475.785 338.429 477.235 335.508C478.492 332.981 482.018 331.074 484.056 329.13C522.167 292.768 547.898 249.516 552.065 213.233C511.829 219.841 471.984 250.354 432.335 292.713V292.713Z" fill="white"/>
<path d="M132.771 135.496C142.681 135.497 151.24 131.892 158.45 124.683C165.659 117.474 169.263 108.915 169.264 99.0043C169.263 88.6549 165.659 79.9889 158.45 73.0062C151.24 66.0243 142.681 62.5331 132.771 62.5327C122.861 62.5331 114.305 66.0243 107.103 73.0062C99.9005 79.9889 96.2994 88.6549 96.2999 99.0043C96.2994 108.915 99.9005 117.474 107.103 124.683C114.305 131.892 122.861 135.497 132.771 135.496V135.496ZM180.747 142.919H84.1358C71.0779 142.919 59.931 147.537 50.695 156.773C41.4581 166.01 36.8399 177.384 36.8403 190.894V303.031C36.8399 313.848 41.7949 319.256 51.7052 319.256C61.1611 319.256 65.8893 313.848 65.8898 303.031V193.595H83.4555V490.852C83.455 504.363 90.2105 511.118 103.722 511.118C117.233 511.118 123.988 504.363 123.989 490.852V318.576H141.554V490.852C141.554 504.363 148.309 511.118 161.821 511.118C175.785 511.118 182.767 504.363 182.768 490.852V193.595H199.653V303.031C199.653 314.288 204.381 319.916 213.838 319.916C223.307 319.916 228.042 314.288 228.043 303.031V191.554C228.042 178.497 223.651 167.127 214.869 157.443C206.085 147.76 194.711 142.919 180.747 142.919V142.919Z" fill="white"/>
</g>
<defs>
<clipPath id="clip0">
<path d="M0 0H580V580H0V0Z" fill="white"/>
</clipPath>
</defs>
</svg>
